img/reform.svg

<svg width="108" height="40" viewBox="0 0 108 40" version="1.1" xmlns="http://www.w3.org/2000/svg" xmlns:xlink="http://www.w3.org/1999/xlink">
<title>Group</title>
<desc>Created using Figma</desc>
<g id="Canvas" transform="translate(322 226)">
<g id="Group">
<g id="Rectangle">
<use xlink:href="#path0_fill" transform="translate(-322 -226)" fill="#724DC8"/>
</g>
<g id="RE">
<use xlink:href="#path1_fill" transform="translate(-313.941 -213.2)" fill="#FFFFFF"/>
</g>
<g id="FORM">
<use xlink:href="#path2_fill" transform="translate(-282.916 -213.2)"/>
</g>
</g>
</g>
<defs>
<path id="path0_fill" d="M 0 0L 40.293 0L 40.293 40L 0 40L 0 0Z"/>
<path id="path1_fill" d="M 8.39308 17.3131L 5.39465 17.3131L 5.39465 24L 1.63094 24L 1.63094 5.73346L 8.41817 5.73346C 10.576 5.73346 12.2404 6.21437 13.4114 7.17621C 14.5823 8.13805 15.1678 9.49717 15.1678 11.2536C 15.1678 12.4998 14.8959 13.5411 14.3523 14.3774C 13.817 15.2055 13.0015 15.8662 11.9059 16.3597L 15.8578 23.8244L 15.8578 24L 11.8181 24L 8.39308 17.3131ZM 5.39465 14.2645L 8.43071 14.2645C 9.37582 14.2645 10.1077 14.0262 10.6262 13.5494C 11.1448 13.0643 11.404 12.3994 11.404 11.5547C 11.404 10.6932 11.1573 10.0157 10.6638 9.52226C 10.1787 9.02879 9.43019 8.78206 8.41817 8.78206L 5.39465 8.78206L 5.39465 14.2645ZM 29.0308 16.0837L 21.8044 16.0837L 21.8044 20.9765L 30.2853 20.9765L 30.2853 24L 18.0407 24L 18.0407 5.73346L 30.2602 5.73346L 30.2602 8.78206L 21.8044 8.78206L 21.8044 13.1354L 29.0308 13.1354L 29.0308 16.0837Z"/>
<path id="path2_fill" d="M 12.3701 15.4689L 3.85153 15.4689L 3.85153 24L 2.30841 24L 2.30841 5.73346L 13.6246 5.73346L 13.6246 7.05075L 3.85153 7.05075L 3.85153 14.1516L 12.3701 14.1516L 12.3701 15.4689ZM 30.2602 15.8578C 30.2602 17.539 29.9675 19.0152 29.382 20.2865C 28.8049 21.5578 27.9769 22.5363 26.898 23.2222C 25.8191 23.908 24.5729 24.2509 23.1594 24.2509C 21.0266 24.2509 19.3037 23.4898 17.9905 21.9676C 16.6774 20.437 16.0209 18.3753 16.0209 15.7826L 16.0209 13.9007C 16.0209 12.2363 16.3136 10.7643 16.8991 9.48462C 17.4929 8.19659 18.3293 7.20967 19.4082 6.52383C 20.4871 5.82964 21.7292 5.48254 23.1343 5.48254C 24.5394 5.48254 25.7772 5.82128 26.8478 6.49874C 27.9267 7.17621 28.7589 8.13387 29.3444 9.37171C 29.9299 10.6096 30.2351 12.0439 30.2602 13.6749L 30.2602 15.8578ZM 28.7171 13.8756C 28.7171 11.6759 28.2195 9.95299 27.2242 8.70679C 26.2289 7.46058 24.8656 6.83748 23.1343 6.83748C 21.4364 6.83748 20.0815 7.46476 19.0695 8.71933C 18.0658 9.96554 17.564 11.7094 17.564 13.9509L 17.564 15.8578C 17.564 18.0241 18.0658 19.7428 19.0695 21.0141C 20.0731 22.2771 21.4364 22.9085 23.1594 22.9085C 24.9074 22.9085 26.2707 22.2854 27.2493 21.0392C 28.2278 19.7846 28.7171 18.0408 28.7171 15.8077L 28.7171 13.8756ZM 40.9743 16.3973L 35.6674 16.3973L 35.6674 24L 34.1118 24L 34.1118 5.73346L 40.0459 5.73346C 41.9947 5.73346 43.5169 6.20601 44.6125 7.15112C 45.7082 8.09623 46.256 9.41771 46.256 11.1156C 46.256 12.2865 45.9131 13.3194 45.2273 14.2144C 44.5414 15.1093 43.6214 15.7282 42.4672 16.0711L 47.0338 23.8369L 47.0338 24L 45.3904 24L 40.9743 16.3973ZM 35.6674 15.08L 40.3972 15.08C 41.6936 15.08 42.7348 14.712 43.521 13.976C 44.3072 13.24 44.7003 12.2865 44.7003 11.1156C 44.7003 9.82754 44.2905 8.82806 43.4709 8.11714C 42.6512 7.40622 41.5012 7.05075 40.0208 7.05075L 35.6674 7.05075L 35.6674 15.08ZM 52.5038 5.73346L 59.2408 21.8547L 66.003 5.73346L 68.0604 5.73346L 68.0604 24L 66.5173 24L 66.5173 16.046L 66.6428 7.89132L 59.843 24L 58.6512 24L 51.8765 7.95404L 52.0019 15.9958L 52.0019 24L 50.4588 24L 50.4588 5.73346L 52.5038 5.73346Z"/>
</defs>
</svg>

<svg width="108" height="40" viewBox="0 0 108 40" xmlns="http://www.w3.org/2000/svg" xmlns:xlink="http://www.w3.org/1999/xlink"><use xlink:href="#path0_fill" fill="#724DC8"/><use xlink:href="#path1_fill" transform="translate(8.059 12.8)" fill="#FFF"/><use xlink:href="#path2_fill" transform="translate(39.084 12.8)"/><defs><path id="path0_fill" d="M0 0h40.293v40H0V0z"/><path id="path1_fill" d="M8.393 17.313H5.395V24H1.63V5.733h6.787c2.158 0 3.822.481 4.993 1.443 1.171.962 1.757 2.321 1.757 4.078 0 1.246-.272 2.287-.816 3.123-.535.829-1.35 1.49-2.446 1.983l3.952 7.464V24h-4.04l-3.425-6.687zm-2.998-3.048H8.43c.945 0 1.677-.239 2.195-.716.519-.485.778-1.15.778-1.994 0-.862-.247-1.54-.74-2.033-.485-.493-1.234-.74-2.246-.74H5.395v5.482zm23.636 1.819h-7.227v4.893h8.481V24H18.041V5.733h12.22v3.05h-8.457v4.352h7.227v2.949z"/><path id="path2_fill" d="M12.37 15.469H3.852V24H2.308V5.733h11.317v1.318H3.852v7.1h8.518v1.318zm17.89.389c0 1.681-.293 3.157-.878 4.428-.577 1.272-1.405 2.25-2.484 2.936-1.079.686-2.325 1.029-3.739 1.029-2.132 0-3.855-.761-5.168-2.283-1.314-1.531-1.97-3.593-1.97-6.185V13.9c0-1.665.293-3.137.878-4.416.594-1.288 1.43-2.275 2.51-2.961 1.078-.694 2.32-1.041 3.725-1.041 1.405 0 2.643.338 3.714 1.016 1.079.677 1.91 1.635 2.496 2.873.586 1.238.891 2.672.916 4.303v2.183zm-1.543-1.982c0-2.2-.497-3.923-1.493-5.17-.995-1.245-2.358-1.869-4.09-1.869-1.698 0-3.053.628-4.064 1.882-1.004 1.247-1.506 2.99-1.506 5.232v1.907c0 2.166.502 3.885 1.506 5.156 1.003 1.263 2.366 1.895 4.09 1.895 1.747 0 3.11-.624 4.09-1.87.978-1.254 1.467-2.998 1.467-5.231v-1.932zm12.257 2.521h-5.307V24h-1.555V5.733h5.934c1.949 0 3.47.473 4.566 1.418 1.096.945 1.644 2.267 1.644 3.965 0 1.17-.343 2.203-1.029 3.098-.686.895-1.606 1.514-2.76 1.857l4.567 7.766V24H45.39l-4.416-7.603zm-5.307-1.317h4.73c1.297 0 2.338-.368 3.124-1.104.786-.736 1.18-1.69 1.18-2.86 0-1.288-.41-2.288-1.23-2.999-.82-.71-1.97-1.066-3.45-1.066h-4.354v8.029zm16.837-9.347l6.737 16.122 6.762-16.122h2.057V24h-1.543v-7.954l.126-8.155L59.843 24h-1.192L51.876 7.954l.126 8.042V24h-1.543V5.733h2.045z"/></defs></svg>
